X: 37871
T: Sound Of Mull, The
R: reel
M: 4/4
K: Amixolydian
|:eAAc BABc|A2 ce aAfA|eAAc BAAB|~G2 Be dGBd:|
|:Beed ef g2|~e2 fg aefd|~e2 ed efgB|1 dGBe dGBd:|2 dGBe dgdB||

